X:433
%%etbk:tnset id:260,pos:11,rep:5x+A,ant:
%%etbk:wsite http://thesession.org/tunes/1615
%%etbk:pldat 2016-06-22T16:38,2016-06-20T18:40,2016-06-18T15:59,2016-05-05T15:29,2016-05-04T16:31,2016-05-03T15:43,2016-03-24T15:53,2016-03-16T16:26,2016-03-05T14:26,2016-02-26T17:29,2016-02-23T17:27,2016-02-13T16:12,2016-02-10T16:53,2016-02-08T18:59,2015-06-26T17:35,2015-06-24T19:10,2015-06-21T15:20,2015-03-11T17:06,2014-11-02T14:33,2014-08-21T18:54,2014-08-18T18:49,2014-06-25T15:43,2014-06-22T16:30,2014-06-09T15:01,2014-02-26T16:43,2013-10-29T17:33,2013-10-26T17:02,2013-05-22T17:58,2013-05-10T15:45,2013-05-09T15:29,2013-05-01T16:49
T: Kerry Fling
Z: Piano Box Version by Martin Fleischmann
H: Created 2013-02-19 /  Last Modified 2013-02-19
R: fling
M: 4/4
L: 1/8
K: Dmaj
|: "A"!1!E3!2!F !1!A2AB | !3!c2!5!ec !2!Bc!1!A!4!e | !5!f2!4!e!3!c !1!ABcA | "E"!5!ecB!1!A !2!F!4!AA!2!F |
"A"!1!E3!2!F !1!A2AB | !3!c2!5!ec !2!Bc!1!A!4!e | !5!f2!4!e!3!c !1!ABcA |1 "E"!5!ecBc "A"!1!A3!2!F:|2 "E"!5!ecBc "A"!1!A3!4!f||
|: "A"!3!e!2!c!3!e!2!f !4!a2a!2!f | !1!e!3!cB!1!A !2!F!1!AAB | "E"!3!c!2!BB{c}B cBBA | !3!cA{d}BA !2!c!3!e!5!a!3!f |
"A"!1!e3!3!f !5!a2af | !1!e!3!cB!1!A !2!F!1!AAB | "E"!3!c!2!BB{c}B cBBA |1 !3!ceBc "A"!1!A3!4!f :|2 !3!ceBc "A"!1!A3!2!F||


